icons/svgs/bus-simple-outline.svg

<svg width="24" height="24" viewBox="0 0 24 24" fill="none" xmlns="http://www.w3.org/2000/svg">
<path d="M5.24219 5.75H18.7578C18.1328 5.08594 16.3359 3.875 12 3.875C7.97656 3.875 5.94531 5.08594 5.24219 5.75ZM18.875 7.625H5.125V10.75H18.875V7.625ZM18.875 12.625H5.125V16.6875C5.125 17.2344 5.51562 17.625 6.0625 17.625H14.9688H17.9375C18.4453 17.625 18.875 17.2344 18.875 16.6875V12.625ZM3.64062 4.73438C4.61719 3.52344 7.27344 2 12 2C17 2 19.4219 3.52344 20.3594 4.77344C20.6328 5.16406 20.75 5.59375 20.75 5.94531V16.6875C20.75 17.6641 20.2422 18.5234 19.5 19.0312V21.0625C19.5 21.6094 19.0703 22 18.5625 22C18.0156 22 17.625 21.6094 17.625 21.0625V19.5H14.9688H6.375V21.0625C6.375 21.6094 5.94531 22 5.4375 22C4.89062 22 4.5 21.6094 4.5 21.0625V19.0312C3.71875 18.5234 3.25 17.6641 3.25 16.6875V5.94531C3.25 5.59375 3.32812 5.125 3.64062 4.73438ZM7.625 13.875C8.28906 13.875 8.875 14.4609 8.875 15.125C8.875 15.8281 8.28906 16.375 7.625 16.375C6.92188 16.375 6.375 15.8281 6.375 15.125C6.375 14.4609 6.92188 13.875 7.625 13.875ZM16.375 13.875C17.0391 13.875 17.625 14.4609 17.625 15.125C17.625 15.8281 17.0391 16.375 16.375 16.375C15.6719 16.375 15.125 15.8281 15.125 15.125C15.125 14.4609 15.6719 13.875 16.375 13.875Z" fill="black"/>
</svg>

<svg xmlns="http://www.w3.org/2000/svg" width="24" height="24" fill="currentColor" class="icon-bus-simple-outline" viewBox="0 0 24 24">
  <mask id="a" width="18" height="20" x="3" y="2" maskUnits="userSpaceOnUse" style="mask-type:alpha">
    <path d="M5.242 5.75h13.516c-.625-.664-2.422-1.875-6.758-1.875-4.023 0-6.055 1.21-6.758 1.875m13.633 1.875H5.125v3.125h13.75zm0 5H5.125v4.063c0 .546.39.937.938.937h11.875c.507 0 .937-.39.937-.937zM3.641 4.735C4.617 3.522 7.273 2 12 2c5 0 7.422 1.523 8.36 2.773.273.391.39.82.39 1.172v10.743a2.85 2.85 0 0 1-1.25 2.343v2.032c0 .546-.43.937-.937.937-.547 0-.938-.39-.938-.937V19.5H6.375v1.563c0 .546-.43.937-.937.937-.547 0-.938-.39-.938-.937V19.03c-.781-.508-1.25-1.367-1.25-2.343V5.945c0-.351.078-.82.39-1.21m3.984 9.14c.664 0 1.25.586 1.25 1.25 0 .703-.586 1.25-1.25 1.25-.703 0-1.25-.547-1.25-1.25 0-.664.547-1.25 1.25-1.25m8.75 0c.664 0 1.25.586 1.25 1.25 0 .703-.586 1.25-1.25 1.25-.703 0-1.25-.547-1.25-1.25 0-.664.547-1.25 1.25-1.25"/>
  </mask>
  <g mask="url(#a)">
    <path d="M0 0h24v24H0z"/>
  </g>
</svg>
